!!!OTL: Exultet
!!!SMS: Velletri, Archivio Diocesano
**kern	**silbe
*	*LLatin
*staff16	*staff16
!Ve	!Ve
=1-	=1-
*clefGv2	*
*k[]	*
1r	.
=2-	=2-
1r	.
=3-	=3-
1r	.
=4-	=4-
1r	.
=5-	=5-
1r	.
=6-	=6-
1r	.
=7-	=7-
1r	.
=8-	=8-
1r	.
=9-	=9-
1r	.
=10-	=10-
1r	.
=11-	=11-
1r	.
=12-	=12-
1r	.
=13-	=13-
1r	.
=14-	=14-
1r	.
=15-	=15-
1r	.
=16-	=16-
1r	.
=17-	=17-
1r	.
=18-	=18-
1r	.
=19-	=19-
1r	.
=20-	=20-
1r	.
=21-	=21-
1r	.
=22-	=22-
1r	.
=23-	=23-
1r	.
=24-	=24-
1r	.
=25-	=25-
1r	.
=26-	=26-
1r	.
=27-	=27-
1r	.
=28-	=28-
1r	.
=29-	=29-
1r	.
=30-	=30-
1r	.
=31-	=31-
1r	.
=32-	=32-
1r	.
=33-	=33-
1r	.
=34-	=34-
1r	.
=35-	=35-
1r	.
=36-	=36-
1r	.
=37-	=37-
1r	.
=38-	=38-
1r	.
=39-	=39-
1r	.
=40-	=40-
1r	.
=41-	=41-
1r	.
=42-	=42-
1r	.
=43-	=43-
1r	.
=44-	=44-
1r	.
=45-	=45-
1r	.
=46-	=46-
1r	.
=47-	=47-
1r	.
=48-	=48-
1r	.
=49-	=49-
1r	.
=50-	=50-
1r	.
=51-	=51-
1r	.
=52-	=52-
1r	.
=53-	=53-
1r	.
=54-	=54-
1r	.
=55-	=55-
1r	.
=56-	=56-
1r	.
=57-	=57-
1r	.
=58-	=58-
1r	.
=59-	=59-
1r	.
=60-	=60-
1r	.
=61-	=61-
(16F	Ve-
16G	.
16A)	.
(16G	-re
8A)	.
16G	.
8F	.
16F	qui-
8G	-a
8A	dig-
(16A	-num
16G)	.
=62-	=62-
8G	et
(16F	iu-
16G	.
8A)	.
(16G	-stum
16F)	.
8G	est.
16F	per
8G	chri-
8F	-stum
(16G	do-
=63-	=63-
16A	.
16G	.
16A)	.
16G	.
16F	.
(16G	-mi-
16A)	.
(16G	-num
16A	.
8G)	.
8F	no-
8F	-strum
=64-	=64-
1r	.
=65-	=65-
1r	.
=66-	=66-
1r	.
=67-	=67-
1r	.
=68-	=68-
1r	.
=69-	=69-
1r	.
=70-	=70-
(32G	So-
32A)	.
16G	-lu-
32G	-tis
16G	quip-
16F	-pe
(32F	ne-
32G)	.
16G	-sci-
32G	-bus
16G	et
16G	cal-
32A	-ca-
16G	-to
(32G	mor-
32A)	.
(32A	-tis
32G)	.
16F	a-
(32G	-cu-
32A)	.
(32G	-le-
32F)	.
32F	-o.
=71-	=71-
16F	re-
16F	-sur-
8A	-re-
16G	-xit
16F	a
(16F	mor-
16G)	.
16G	-tu-
8G	-is
16F	qui
8G	fu-
16F	-e-
16F	-rat
=72-	=72-
16G	in-
16F	-ter
(16G	mor-
16A	.
16G	.
16B)	.
16A	.
16G	.
16F	.
(16G	-tu-
16A)	.
(16G	-os
16A	.
16G)	.
16F	li-
16F	-ber.
=73-	=73-
(8G	Un-
8A)	.
8G	-de
8G	nox
8A	ip-
8G	-sa
8F	si-
(16F	-de-
16G)	.
=74-	=74-
8G	-re-
8G	-o
8G	pro
8G	ec-
8G	-cle-
8G	-si-
(8G	-a-
8A)	.
=75-	=75-
(8A	-rum
8G)	.
8F	or-
(8G	-na-
8A	.
8G)	.
4F	-tu.
=76-	=76-
8F	ce-
8F	-re-
8A	-o-
8G	-rum
4F	splen-
(8F	-do-
8G)	.
=77-	=77-
8G	-re
8G	tam-
8F	-quam
(8F	di-
8G)	.
8G	-es.
8G	il-
8G	-lu-
=78-	=78-
8G	-mi-
(8G	-na
8A)	.
(16A	-ta
8G)	.
8F	col-
(16G	-lu-
16A	.
16G)	.
8F	-cet.
=79-	=79-
8F	qui-
8F	-a
8F	in
8A	e-
8G	-ius
8G	ma-
8F	-tu-
(16F	-ti-
16G)	.
=80-	=80-
8G	-no
8G	re-
8A	-sur-
8G	-gen-
8F	-te
(16F	chri-
16G)	.
8G	-sto.
8G	mors
=81-	=81-
8G	oc-
8G	-ci-
(16G	-dit
16A)	.
(16A	re-
16G)	.
8F	-demp-
(8G	-to-
16A	.
16G)	.
8F	-rum.
=82-	=82-
4F	et
4F	e-
4G	-mer-
4F	-sit
=83-	=83-
(8G	vi-
8A	.
8G	.
8A)	.
8G	.
8F	.
(8G	-ta
8A)	.
=84-	=84-
(8G	cre-
8A	.
8G)	.
8F	-den-
4F	-ti-
4F	-um.
=85-	=85-
(8G	Ve-
8A)	.
8G	-re
8G	tu
8G	pre-
8G	-ti-
8A	-o-
8G	-sus
=86-	=86-
8F	es
(8G	o-
16A)	.
(8G	-pi-
16F)	.
8F	-fex
8F	for-
(8G	-ma-
8A)	.
=87-	=87-
(8A	-tor
8G)	.
8F	es
(8G	om-
8A)	.
(8G	-ni-
8F)	.
8F	-um
=88-	=88-
4F	cu-
8F	-i
4A	qua-
8G	-li-
4G	-tas
=89-	=89-
8G	in
8F	a-
(8F	-gen-
8G)	.
8G	-dis
8G	non
(8G	fu-
8A)	.
=90-	=90-
(8A	-it
8G)	.
8F	of-
(8G	-fi-
8A)	.
(8G	-ci-
8F)	.
8F	-o.
=91-	=91-
4F	sed
4G	in
4F	ser-
(8G	-mo-
8A	.
=92-	=92-
8G	.
8A)	.
8G	.
8F	.
(8G	-nis
8A)	.
(4G	im-
=93-	=93-
8A	.
8G)	.
4F	-pe-
4F	-ri-
4F	-o.
=94-	=94-
(16G	Qui
16A)	.
8G	or-
(16F	-na-
16G)	.
8G	-tum
8G	at-
8G	-que
8A	ha-
8G	-bi-
=95-	=95-
8F	-tum
(16F	mun-
16G)	.
16G	-di.
8G	nec
16G	ad
16G	am-
16F	-pli-
(16F	-an-
16G)	.
16G	-dum
8G	qua-
16G	-si
=96-	=96-
(16G	i-
8A)	.
(16A	-nobs
8G)	.
8F	po-
(16G	-ten-
8A)	.
(16G	-ti-
8F)	.
8F	-e
=97-	=97-
8F	nec
8F	ad
8F	di-
8A	-tan-
8G	-dum
8F	qu-
8F	-a-
8F	-si
=98-	=98-
8F	e-
8G	-ge-
8F	-nus
8F	glo-
8F	-ri-
(16G	-e
16A	.
8G	.
8A)	.
=99-	=99-
16G	.
8F	.
(16G	con-
8A)	.
(16G	-di-
16A	.
8G)	.
8F	-di-
4F	-sti.
=100-	=100-
1r	.
=101-	=101-
1r	.
=102-	=102-
1r	.
=103-	=103-
1r	.
=104-	=104-
1r	.
=105-	=105-
1r	.
=106-	=106-
1r	.
=107-	=107-
1r	.
=108-	=108-
1r	.
=109-	=109-
1r	.
=110-	=110-
1r	.
=111-	=111-
1r	.
=112-	=112-
1r	.
=113-	=113-
1r	.
=114-	=114-
1r	.
=115-	=115-
1r	.
=116-	=116-
1r	.
=117-	=117-
1r	.
=118-	=118-
1r	.
=119-	=119-
1r	.
=120-	=120-
1r	.
=121-	=121-
1r	.
=122-	=122-
1r	.
=123-	=123-
1r	.
=124-	=124-
1r	.
=125-	=125-
1r	.
=126-	=126-
1r	.
=127-	=127-
1r	.
=128-	=128-
1r	.
=129-	=129-
1r	.
=130-	=130-
1r	.
=131-	=131-
1r	.
=132-	=132-
1r	.
=133-	=133-
1r	.
=134-	=134-
1r	.
=135-	=135-
1r	.
=136-	=136-
1r	.
=137-	=137-
1r	.
=138-	=138-
1r	.
=139-	=139-
1r	.
=140-	=140-
1r	.
=141-	=141-
1r	.
=142-	=142-
1r	.
=143-	=143-
1r	.
=144-	=144-
1r	.
=145-	=145-
1r	.
=146-	=146-
1r	.
=147-	=147-
1r	.
=148-	=148-
1r	.
=149-	=149-
1r	.
=150-	=150-
1r	.
=151-	=151-
1r	.
=152-	=152-
1r	.
=153-	=153-
1r	.
=154-	=154-
1r	.
=155-	=155-
1r	.
=156-	=156-
1r	.
=157-	=157-
1r	.
=158-	=158-
1r	.
=159-	=159-
1r	.
=160-	=160-
1r	.
=161-	=161-
1r	.
=162-	=162-
1r	.
=163-	=163-
1r	.
=164-	=164-
1r	.
=165-	=165-
1r	.
=166-	=166-
1r	.
=167-	=167-
1r	.
=168-	=168-
1r	.
=169-	=169-
1r	.
=170-	=170-
1r	.
=171-	=171-
1r	.
=172-	=172-
1r	.
=173-	=173-
1r	.
=174-	=174-
1r	.
=175-	=175-
1r	.
=176-	=176-
1r	.
=177-	=177-
1r	.
=178-	=178-
1r	.
=179-	=179-
1r	.
=180-	=180-
1r	.
=181-	=181-
1r	.
=182-	=182-
1r	.
=183-	=183-
1r	.
=184-	=184-
1r	.
=185-	=185-
1r	.
=186-	=186-
1r	.
=187-	=187-
1r	.
=188-	=188-
1r	.
=189-	=189-
1r	.
=190-	=190-
1r	.
=191-	=191-
1r	.
=192-	=192-
1r	.
=193-	=193-
1r	.
=194-	=194-
1r	.
=195-	=195-
1r	.
=196-	=196-
1r	.
=197-	=197-
1r	.
=198-	=198-
1r	.
=199-	=199-
1r	.
=200-	=200-
1r	.
=201-	=201-
1r	.
=202-	=202-
1r	.
=203-	=203-
1r	.
=204-	=204-
1r	.
=205-	=205-
1r	.
=206-	=206-
1r	.
=207-	=207-
1r	.
=208-	=208-
1r	.
=209-	=209-
1r	.
=210-	=210-
1r	.
=211-	=211-
1r	.
=212-	=212-
1r	.
=213-	=213-
1r	.
=214-	=214-
1r	.
=215-	=215-
1r	.
=216-	=216-
1r	.
=217-	=217-
1r	.
=218-	=218-
1r	.
=219-	=219-
1r	.
=220-	=220-
1r	.
=221-	=221-
1r	.
=222-	=222-
1r	.
=223-	=223-
1r	.
=224-	=224-
1r	.
=225-	=225-
1r	.
=226-	=226-
1r	.
=227-	=227-
1r	.
=228-	=228-
1r	.
=229-	=229-
1r	.
=230-	=230-
1r	.
=231-	=231-
1r	.
=232-	=232-
1r	.
=233-	=233-
1r	.
=234-	=234-
1r	.
=235-	=235-
1r	.
=236-	=236-
1r	.
=237-	=237-
1r	.
=238-	=238-
1r	.
=239-	=239-
1r	.
=240-	=240-
1r	.
=241-	=241-
1r	.
=242-	=242-
1r	.
=243-	=243-
1r	.
=244-	=244-
1r	.
=245-	=245-
1r	.
=246-	=246-
1r	.
=247-	=247-
1r	.
=248-	=248-
1r	.
=249-	=249-
1r	.
=250-	=250-
1r	.
=251-	=251-
1r	.
=252-	=252-
1r	.
=253-	=253-
1r	.
=254-	=254-
1r	.
=255-	=255-
1r	.
=256-	=256-
1r	.
=257-	=257-
1r	.
=258-	=258-
1r	.
=259-	=259-
1r	.
=260-	=260-
1r	.
=261-	=261-
1r	.
=262-	=262-
1r	.
=263-	=263-
1r	.
=264-	=264-
1r	.
=265-	=265-
1r	.
=266-	=266-
1r	.
=267-	=267-
1r	.
=268-	=268-
1r	.
=269-	=269-
1r	.
=270-	=270-
1r	.
=271-	=271-
1r	.
=272-	=272-
1r	.
=273-	=273-
1r	.
=274-	=274-
1r	.
=275-	=275-
1r	.
=276-	=276-
1r	.
=277-	=277-
1r	.
=278-	=278-
1r	.
=279-	=279-
1r	.
=280-	=280-
1r	.
=281-	=281-
1r	.
=282-	=282-
1r	.
=283-	=283-
1r	.
=284-	=284-
1r	.
=285-	=285-
1r	.
=286-	=286-
1r	.
=287-	=287-
1r	.
=288-	=288-
1r	.
=289-	=289-
1r	.
=290-	=290-
1r	.
=291-	=291-
1r	.
=292-	=292-
1r	.
=293-	=293-
1r	.
=294-	=294-
1r	.
=295-	=295-
1r	.
=296-	=296-
1r	.
=297-	=297-
1r	.
=298-	=298-
1r	.
=299-	=299-
1r	.
=300-	=300-
1r	.
=301-	=301-
1r	.
=302-	=302-
1r	.
=303-	=303-
1r	.
=304-	=304-
1r	.
=305-	=305-
1r	.
=306-	=306-
1r	.
=307-	=307-
1r	.
=308-	=308-
1r	.
=309-	=309-
1r	.
=310-	=310-
1r	.
=311-	=311-
1r	.
=312-	=312-
1r	.
=313-	=313-
1r	.
=314-	=314-
1r	.
=315-	=315-
1r	.
=316-	=316-
1r	.
=317-	=317-
1r	.
=318-	=318-
1r	.
=319-	=319-
1r	.
=320-	=320-
1r	.
=321-	=321-
1r	.
=322-	=322-
1r	.
=323-	=323-
1r	.
=324-	=324-
1r	.
=325-	=325-
1r	.
=326-	=326-
1r	.
=327-	=327-
1r	.
=328-	=328-
1r	.
=329-	=329-
1r	.
=330-	=330-
1r	.
=331-	=331-
1r	.
=332-	=332-
1r	.
=333-	=333-
1r	.
=334-	=334-
1r	.
=335-	=335-
1r	.
=336-	=336-
1r	.
=337-	=337-
1r	.
=338-	=338-
1r	.
=339-	=339-
1r	.
=340-	=340-
1r	.
=341-	=341-
1r	.
=342-	=342-
1r	.
=343-	=343-
1r	.
=344-	=344-
1r	.
=345-	=345-
1r	.
=346-	=346-
1r	.
=347-	=347-
1r	.
=348-	=348-
1r	.
=349-	=349-
1r	.
=350-	=350-
1r	.
=351-	=351-
1r	.
=352-	=352-
1r	.
=353-	=353-
1r	.
=354-	=354-
1r	.
=355-	=355-
1r	.
=356-	=356-
1r	.
=357-	=357-
1r	.
=358-	=358-
1r	.
=359-	=359-
1r	.
=360-	=360-
1r	.
=361-	=361-
1r	.
=362-	=362-
1r	.
=363-	=363-
1r	.
=364-	=364-
1r	.
=365-	=365-
1r	.
=366-	=366-
1r	.
=367-	=367-
1r	.
=368-	=368-
1r	.
=369-	=369-
1r	.
=370-	=370-
1r	.
=371-	=371-
1r	.
=372-	=372-
1r	.
=373-	=373-
1r	.
=374-	=374-
1r	.
=375-	=375-
1r	.
=376-	=376-
1r	.
==	==
*-	*-
!!!hum2abc: -p "%%nostems" -M none
!!!ENC: Elsa De Luca
!!!RWG: Rhythms and barlines are for alignment only, not found in source.
!!!YEC: Copyright 2009, Elsa De Luca
!!!title: @{OTL}, @{SMS}
